; G-Code generated by Simplify3D(R) Version 3.0.2
; Apr 4, 2017 at 9:10:21 PM
; Settings Summary
;   processName,Process1
;   applyToModels,handle
;   profileName,LulzBot TAZ 5
;   profileVersion,2016-04-15 18:39:51
;   baseProfile,
;   printMaterial,PLA
;   printQuality,High
;   printExtruders,
;   extruderName,Primary Extruder
;   extruderToolheadNumber,0
;   extruderDiameter,0.5
;   extruderAutoWidth,0
;   extruderWidth,0.4
;   extrusionMultiplier,0.98
;   extruderUseRetract,1
;   extruderRetractionDistance,1.5
;   extruderExtraRestartDistance,0
;   extruderRetractionZLift,0.1
;   extruderRetractionSpeed,600
;   extruderUseCoasting,0
;   extruderCoastingDistance,0.2
;   extruderUseWipe,0
;   extruderWipeDistance,5
;   primaryExtruder,0
;   layerHeight,0.1
;   topSolidLayers,8
;   bottomSolidLayers,8
;   perimeterOutlines,3
;   printPerimetersInsideOut,1
;   startPointOption,2
;   startPointOriginX,0
;   startPointOriginY,0
;   startPointOriginZ,300
;   sequentialIslands,0
;   spiralVaseMode,0
;   firstLayerHeightPercentage,90
;   firstLayerWidthPercentage,100
;   firstLayerUnderspeed,0.5
;   useRaft,0
;   raftExtruder,0
;   raftLayers,3
;   raftOffset,3
;   raftSeparationDistance,0.14
;   raftInfill,85
;   disableRaftBaseLayers,0
;   useSkirt,1
;   skirtExtruder,0
;   skirtLayers,2
;   skirtOutlines,2
;   skirtOffset,6
;   usePrimePillar,0
;   primePillarExtruder,999
;   primePillarWidth,12
;   primePillarLocation,7
;   primePillarSpeedMultiplier,1
;   useOozeShield,0
;   oozeShieldExtruder,999
;   oozeShieldOffset,2
;   oozeShieldOutlines,1
;   oozeShieldSidewallShape,1
;   oozeShieldSidewallAngle,30
;   oozeShieldSpeedMultiplier,1
;   infillExtruder,0
;   internalInfillPattern,Rectilinear
;   externalInfillPattern,Rectilinear
;   infillPercentage,35
;   outlineOverlapPercentage,25
;   infillExtrusionWidthPercentage,150
;   minInfillLength,5
;   infillLayerInterval,1
;   infillAngles,45,-45
;   overlapInfillAngles,0
;   generateSupport,1
;   supportExtruder,0
;   supportInfillPercentage,40
;   supportExtraInflation,0
;   denseSupportLayers,0
;   denseSupportInfillPercentage,70
;   supportLayerInterval,1
;   supportHorizontalPartOffset,0.3
;   supportUpperSeparationLayers,1
;   supportLowerSeparationLayers,1
;   supportType,0
;   supportGridSpacing,4
;   maxOverhangAngle,40
;   supportAngles,0
;   temperatureName,Primary Extruder,Heated Bed
;   temperatureNumber,0,1
;   temperatureSetpointCount,1,1
;   temperatureSetpointLayers,1,1
;   temperatureSetpointTemperatures,210,60
;   temperatureStabilizeAtStartup,1,1
;   temperatureHeatedBed,0,1
;   temperatureRelayBetweenLayers,0,0
;   temperatureRelayBetweenLoops,0,0
;   fanLayers,1,2
;   fanSpeeds,0,100
;   blipFanToFullPower,1
;   adjustSpeedForCooling,1
;   minSpeedLayerTime,15
;   minCoolingSpeedSlowdown,20
;   increaseFanForCooling,0
;   minFanLayerTime,45
;   maxCoolingFanSpeed,100
;   increaseFanForBridging,0
;   bridgingFanSpeed,100
;   use5D,1
;   relativeEdistances,0
;   allowEaxisZeroing,1
;   independentExtruderAxes,0
;   includeM10123,0
;   stickySupport,1
;   applyToolheadOffsets,0
;   gcodeXoffset,0
;   gcodeYoffset,0
;   gcodeZoffset,0
;   overrideMachineDefinition,1
;   machineTypeOverride,0
;   strokeXoverride,298
;   strokeYoverride,275
;   strokeZoverride,250
;   originOffsetXoverride,0
;   originOffsetYoverride,0
;   originOffsetZoverride,0
;   homeXdirOverride,-1
;   homeYdirOverride,-1
;   homeZdirOverride,-1
;   flipXoverride,1
;   flipYoverride,-1
;   flipZoverride,1
;   toolheadOffsets,0,0|0,0|0,0|0,0|0,0|0,0
;   overrideFirmwareConfiguration,1
;   firmwareTypeOverride,RepRap (Marlin/Repetier/Sprinter)
;   GPXconfigOverride,r2
;   baudRateOverride,115200
;   overridePrinterModels,1
;   printerModelsOverride,LulzBot_TAZ3.stl
;   startingGcode,G28 ; home all axes
;   layerChangeGcode,
;   retractionGcode,
;   toolChangeGcode,
;   endingGcode,M104 S0 ; turn off extruder,M140 S0 ; turn off bed,G28 X0 ; home X axis,M84 ; disable motors
;   createX3G,0
;   celebration,0
;   celebrationSong,Random Song
;   createMB5G,0
;   postProcessing,
;   defaultSpeed,3600
;   outlineUnderspeed,0.5
;   solidInfillUnderspeed,0.8
;   supportUnderspeed,0.8
;   rapidXYspeed,4800
;   rapidZspeed,1000
;   minBridgingArea,50
;   bridgingExtraInflation,0
;   bridgingExtrusionMultiplier,1
;   bridgingSpeedMultiplier,1
;   filamentDiameter,2.94
;   filamentPricePerKg,46
;   filamentDensity,1.25
;   useMinPrintHeight,0
;   minPrintHeight,0
;   useMaxPrintHeight,0
;   maxPrintHeight,0
;   useDiaphragm,0
;   diaphragmLayerInterval,20
;   robustSlicing,1
;   mergeAllIntoSolid,0
;   onlyRetractWhenCrossingOutline,1
;   retractBetweenLayers,1
;   useRetractionMinTravel,0
;   retractionMinTravel,3
;   retractWhileWiping,0
;   onlyWipeOutlines,1
;   avoidCrossingOutline,0
;   maxMovementDetourFactor,3
;   toolChangeRetractionDistance,12
;   toolChangeExtraRestartDistance,-0.5
;   toolChangeRetractionSpeed,600
;   allowThinWallGapFill,1
;   thinWallAllowedOverlapPercentage,10
;   horizontalSizeCompensation,0
G90
M82
M106 S0
M140 S60
M190 S60
M104 S210 T0
M109 S210 T0
G28 ; home all axes
G92 E0
G1 E-1.5000 F600
G1 Z0.190 F1000
; layer 1, Z = 0.09
T0
; tool H0.100 W0.400
; skirt
G1 X134.554 Y126.737 F4800
G1 Z0.090 F1000
G1 E0.0000 F180
G92 E0
G1 X138.237 Y123.054 E0.0301 F1800
G1 X138.458 Y122.963 E0.0315
G1 X159.542 Y122.963 E0.1532
G1 X159.763 Y123.054 E0.1546
G1 X163.446 Y126.737 E0.1847
G1 X163.537 Y126.958 E0.1860
G1 X163.537 Y148.042 E0.3078
G1 X163.446 Y148.263 E0.3092
G1 X159.763 Y151.946 E0.3392
G1 X159.542 Y152.037 E0.3406
G1 X138.458 Y152.037 E0.4624
G1 X138.237 Y151.946 E0.4638
G1 X134.554 Y148.263 E0.4938
G1 X134.463 Y148.042 E0.4952
G1 X134.463 Y126.958 E0.6170
G1 X134.554 Y126.737 E0.6183
G1 X134.893 Y126.964 F4800
G92 E0
G1 X138.464 Y123.393 E0.0292 F1800
G1 X138.537 Y123.362 E0.0296
G1 X159.463 Y123.362 E0.1504
G1 X159.536 Y123.393 E0.1509
G1 X163.107 Y126.964 E0.1801
G1 X163.137 Y127.037 E0.1805
G1 X163.137 Y147.963 E0.3014
G1 X163.107 Y148.036 E0.3018
G1 X159.536 Y151.607 E0.3310
G1 X159.463 Y151.637 E0.3314
G1 X138.537 Y151.637 E0.4523
G1 X138.464 Y151.607 E0.4527
G1 X134.893 Y148.036 E0.4819
G1 X134.863 Y147.963 E0.4823
G1 X134.863 Y127.037 E0.6032
G1 X134.893 Y126.964 E0.6036
G92 E0
G1 E-1.5000 F600
G1 Z0.190 F1000
; inner perimeter
G1 X142.062 Y130.562 F4800
G1 Z0.090 F1000
G1 E0.0000 F600
G92 E0
G1 X155.938 Y130.562 E0.0801 F1500
G1 X155.938 Y144.438 E0.1602
G1 X142.062 Y144.438 E0.2404
G1 X142.062 Y130.562 E0.3205
; inner perimeter
G1 X141.663 Y130.163 F4800
G92 E0
G1 X156.338 Y130.162 E0.0847 F1200
G1 X156.338 Y144.838 E0.1695
G1 X141.662 Y144.838 E0.2542
G1 X141.662 Y130.162 E0.3390
; outer perimeter
G1 X141.262 Y129.762 F4800
G92 E0
G1 X156.738 Y129.762 E0.0894 F900
G1 X156.738 Y145.238 E0.1787
G1 X141.262 Y145.238 E0.2681
G1 X141.262 Y129.762 E0.3574
; inner perimeter
G1 X144.936 Y133.826 F4800
G92 E0
G1 X144.552 Y134.398 E0.0040 F1500
G1 X144.248 Y135.003 E0.0079
G1 X144.097 Y135.418 E0.0104
G1 X144.020 Y135.654 E0.0119
G1 X143.881 Y136.299 E0.0157
G1 X143.828 Y136.950 E0.0195
G1 X143.837 Y137.313 E0.0215
G1 X143.857 Y137.622 E0.0233
G1 X143.965 Y138.249 E0.0270
G1 X144.149 Y138.852 E0.0307
G1 X144.260 Y139.114 E0.0323
G1 X144.417 Y139.447 E0.0344
G1 X144.738 Y139.969 E0.0380
G1 X144.898 Y140.173 E0.0395
G1 X145.035 Y140.387 E0.0409
G1 X145.424 Y140.858 E0.0445
G1 X145.873 Y141.280 E0.0480
G1 X146.372 Y141.642 E0.0516
G1 X146.911 Y141.938 E0.0551
G1 X147.484 Y142.165 E0.0587
G1 X148.081 Y142.318 E0.0622
G1 X148.692 Y142.395 E0.0658
G1 X149.308 Y142.395 E0.0694
G1 X149.919 Y142.318 E0.0729
G1 X150.516 Y142.165 E0.0765
G1 X151.089 Y141.938 E0.0800
G1 X151.372 Y141.782 E0.0819
G1 X151.542 Y141.710 E0.0830
G1 X152.080 Y141.404 E0.0865
G1 X152.581 Y141.028 E0.0901
G1 X152.835 Y140.788 E0.0922
G1 X153.050 Y140.572 E0.0939
G1 X153.448 Y140.072 E0.0976
G1 X153.783 Y139.521 E0.1013
G1 X153.906 Y139.257 E0.1030
G1 X154.058 Y138.905 E0.1052
G1 X154.248 Y138.271 E0.1091
G1 X154.356 Y137.617 E0.1129
G1 X154.370 Y137.384 E0.1142
G1 X154.383 Y136.922 E0.1169
G1 X154.322 Y136.233 E0.1209
G1 X154.137 Y135.449 E0.1255
G1 X153.937 Y134.899 E0.1289
G1 X153.616 Y134.266 E0.1330
G1 X153.180 Y133.635 E0.1375
G1 X152.737 Y133.136 E0.1413
G1 X152.189 Y132.655 E0.1455
G1 X151.736 Y132.350 E0.1487
G1 X151.480 Y132.210 E0.1504
G1 X150.799 Y131.941 E0.1546
G1 X150.088 Y131.760 E0.1588
G1 X149.361 Y131.669 E0.1631
G1 X148.983 Y131.669 E0.1652
G1 X148.539 Y131.709 E0.1678
G1 X147.825 Y131.867 E0.1720
G1 X147.143 Y132.112 E0.1762
G1 X146.509 Y132.437 E0.1803
G1 X145.998 Y132.780 E0.1839
G1 X145.398 Y133.298 E0.1885
G1 X144.936 Y133.826 E0.1925
; inner perimeter
G1 X145.254 Y134.070 F4800
G92 E0
G1 X144.898 Y134.600 E0.0037 F1200
G1 X144.616 Y135.161 E0.0073
G1 X144.476 Y135.549 E0.0097
G1 X144.406 Y135.759 E0.0110
G1 X144.278 Y136.358 E0.0145
G1 X144.228 Y136.961 E0.0180
G1 X144.237 Y137.295 E0.0199
G1 X144.255 Y137.575 E0.0215
G1 X144.355 Y138.157 E0.0250
G1 X144.525 Y138.715 E0.0283
G1 X144.625 Y138.950 E0.0298
G1 X144.769 Y139.256 E0.0318
G1 X145.067 Y139.740 E0.0350
G1 X145.225 Y139.942 E0.0365
G1 X145.359 Y140.152 E0.0380
G1 X145.716 Y140.583 E0.0412
G1 X146.129 Y140.971 E0.0445
G1 X146.586 Y141.303 E0.0477
G1 X147.082 Y141.576 E0.0510
G1 X147.608 Y141.784 E0.0543
G1 X148.156 Y141.925 E0.0575
G1 X148.717 Y141.995 E0.0608
G1 X149.283 Y141.995 E0.0641
G1 X149.844 Y141.925 E0.0673
G1 X150.392 Y141.784 E0.0706
G1 X150.918 Y141.576 E0.0739
G1 X151.197 Y141.422 E0.0757
G1 X151.364 Y141.351 E0.0767
G1 X151.860 Y141.069 E0.0800
G1 X152.323 Y140.722 E0.0834
G1 X152.556 Y140.501 E0.0852
G1 X152.751 Y140.306 E0.0868
G1 X153.119 Y139.843 E0.0902
G1 X153.430 Y139.332 E0.0937
G1 X153.540 Y139.094 E0.0952
G1 X153.681 Y138.768 E0.0973
G1 X153.857 Y138.181 E0.1008
G1 X153.958 Y137.572 E0.1044
G1 X153.970 Y137.367 E0.1055
G1 X153.983 Y136.934 E0.1081
G1 X153.926 Y136.297 E0.1117
G1 X153.753 Y135.564 E0.1161
G1 X153.569 Y135.058 E0.1192
G1 X153.271 Y134.471 E0.1230
G1 X152.864 Y133.882 E0.1271
G1 X152.454 Y133.420 E0.1307
G1 X151.945 Y132.972 E0.1346
G1 X151.528 Y132.692 E0.1375
G1 X151.310 Y132.573 E0.1390
G1 X150.676 Y132.323 E0.1429
G1 X150.013 Y132.154 E0.1468
G1 X149.336 Y132.069 E0.1508
G1 X149.001 Y132.069 E0.1527
G1 X148.600 Y132.105 E0.1550
G1 X147.936 Y132.252 E0.1590
G1 X147.303 Y132.479 E0.1629
G1 X146.713 Y132.782 E0.1667
G1 X146.241 Y133.099 E0.1700
G1 X145.681 Y133.582 E0.1742
G1 X145.254 Y134.070 E0.1780
; outer perimeter
G1 X145.572 Y134.315 F4800
G92 E0
G1 X145.244 Y134.802 E0.0034 F900
G1 X144.984 Y135.320 E0.0067
G1 X144.854 Y135.679 E0.0089
G1 X144.793 Y135.864 E0.0101
G1 X144.674 Y136.416 E0.0133
G1 X144.629 Y136.972 E0.0166
G1 X144.637 Y137.277 E0.0183
G1 X144.653 Y137.528 E0.0198
G1 X144.744 Y138.064 E0.0229
G1 X144.902 Y138.577 E0.0260
G1 X144.991 Y138.786 E0.0273
G1 X145.122 Y139.066 E0.0291
G1 X145.396 Y139.511 E0.0321
G1 X145.552 Y139.710 E0.0336
G1 X145.683 Y139.916 E0.0350
G1 X146.009 Y140.309 E0.0379
G1 X146.384 Y140.662 E0.0409
G1 X146.801 Y140.965 E0.0439
G1 X147.253 Y141.213 E0.0469
G1 X147.732 Y141.403 E0.0498
G1 X148.231 Y141.531 E0.0528
G1 X148.742 Y141.595 E0.0558
G1 X149.258 Y141.595 E0.0588
G1 X149.769 Y141.531 E0.0617
G1 X150.268 Y141.403 E0.0647
G1 X150.747 Y141.213 E0.0677
G1 X151.021 Y141.062 E0.0695
G1 X151.186 Y140.992 E0.0705
G1 X151.640 Y140.734 E0.0735
G1 X152.064 Y140.416 E0.0766
G1 X152.276 Y140.215 E0.0783
G1 X152.452 Y140.039 E0.0797
G1 X152.791 Y139.614 E0.0829
G1 X153.076 Y139.144 E0.0860
G1 X153.175 Y138.930 E0.0874
G1 X153.305 Y138.631 E0.0893
G1 X153.467 Y138.090 E0.0925
G1 X153.560 Y137.527 E0.0958
G1 X153.571 Y137.350 E0.0969
G1 X153.582 Y136.946 E0.0992
G1 X153.530 Y136.361 E0.1026
G1 X153.369 Y135.679 E0.1066
G1 X153.201 Y135.218 E0.1095
G1 X152.927 Y134.676 E0.1130
G1 X152.549 Y134.129 E0.1168
G1 X152.171 Y133.704 E0.1201
G1 X151.700 Y133.290 E0.1237
G1 X151.321 Y133.034 E0.1264
G1 X151.141 Y132.936 E0.1275
G1 X150.552 Y132.704 E0.1312
G1 X149.939 Y132.547 E0.1349
G1 X149.311 Y132.469 E0.1385
G1 X149.019 Y132.469 E0.1402
G1 X148.662 Y132.501 E0.1423
G1 X148.048 Y132.637 E0.1459
G1 X147.462 Y132.847 E0.1495
G1 X146.916 Y133.127 E0.1530
G1 X146.484 Y133.417 E0.1560
G1 X145.964 Y133.866 E0.1600
G1 X145.571 Y134.315 E0.1635
; solid layer
G1 X147.471 Y131.675 F4800
G92 E0
G1 X148.284 Y130.863 E0.0066 F1440
G1 X148.849 Y130.863 E0.0099
G1 X148.245 Y131.466 E0.0148
G1 X148.493 Y131.412 E0.0163
G1 X148.903 Y131.375 E0.0187
G1 X149.415 Y130.863 E0.0229
G1 X149.981 Y130.863 E0.0261
G1 X149.464 Y131.379 E0.0303
G1 X149.967 Y131.442 E0.0333
G1 X150.546 Y130.863 E0.0380
G1 X151.112 Y130.863 E0.0413
G1 X150.436 Y131.539 E0.0468
G1 X150.886 Y131.654 E0.0495
G1 X151.678 Y130.863 E0.0559
G1 X152.243 Y130.863 E0.0592
G1 X151.292 Y131.814 E0.0670
G1 X151.607 Y131.938 E0.0689
G1 X151.689 Y131.982 E0.0695
G1 X152.809 Y130.863 E0.0786
G1 X153.375 Y130.863 E0.0819
G1 X152.043 Y132.194 E0.0928
G1 X152.373 Y132.417 E0.0951
G1 X152.380 Y132.423 E0.0951
G1 X153.940 Y130.863 E0.1079
G1 X154.506 Y130.863 E0.1111
G1 X152.681 Y132.687 E0.1260
G1 X152.949 Y132.923 E0.1281
G1 X152.978 Y132.956 E0.1283
G1 X155.072 Y130.863 E0.1454
G1 X155.637 Y130.863 E0.1487
G1 X155.637 Y130.863 E0.1487
G1 X153.244 Y133.256 E0.1682
G1 X153.416 Y133.449 E0.1697
G1 X153.498 Y133.568 E0.1706
G1 X155.637 Y131.428 E0.1880
G1 X155.637 Y131.994 E0.1913
G1 X153.729 Y133.902 E0.2069
G1 X153.874 Y134.112 E0.2084
G1 X153.945 Y134.252 E0.2093
G1 X155.637 Y132.560 E0.2231
G1 X155.637 Y133.125 E0.2264
G1 X154.135 Y134.627 E0.2386
G1 X154.213 Y134.779 E0.2396
G1 X154.302 Y135.026 E0.2411
G1 X155.637 Y133.691 E0.2520
G1 X155.637 Y134.257 E0.2553
G1 X154.445 Y135.449 E0.2650
G1 X154.553 Y135.907 E0.2677
G1 X155.637 Y134.822 E0.2766
G1 X155.637 Y135.388 E0.2799
G1 X154.637 Y136.388 E0.2880
G1 X154.683 Y136.908 E0.2911
G1 X155.637 Y135.954 E0.2988
G1 X155.637 Y136.519 E0.3021
G1 X154.664 Y137.493 E0.3101
G1 X154.655 Y137.650 E0.3110
G1 X154.572 Y138.151 E0.3139
G1 X155.637 Y137.085 E0.3226
G1 X155.637 Y137.651 E0.3259
G1 X154.365 Y138.923 E0.3363
G1 X155.637 Y143.873 F4800
G92 E0
G1 X155.373 Y144.137 E0.0022 F1440
G1 X154.808 Y144.137 E0.0054
G1 X155.637 Y143.308 E0.0122
G1 X155.637 Y142.742 E0.0155
G1 X154.242 Y144.137 E0.0269
G1 X153.676 Y144.137 E0.0301
G1 X155.637 Y142.176 E0.0461
G1 X155.637 Y141.611 E0.0494
G1 X153.111 Y144.137 E0.0700
G1 X152.545 Y144.137 E0.0733
G1 X155.637 Y141.045 E0.0986
G1 X155.637 Y140.479 E0.1018
G1 X151.979 Y144.137 E0.1317
G1 X151.414 Y144.137 E0.1350
G1 X155.637 Y139.914 E0.1695
G1 X155.637 Y139.348 E0.1727
G1 X150.848 Y144.137 E0.2118
G1 X150.282 Y144.137 E0.2151
G1 X155.637 Y138.782 E0.2588
G1 X155.637 Y138.216 E0.2621
G1 X153.826 Y140.028 E0.2769
G1 X153.695 Y140.245 E0.2784
G1 X153.274 Y140.772 E0.2823
G1 X153.044 Y141.003 E0.2841
G1 X152.775 Y141.258 E0.2863
G1 X152.245 Y141.656 E0.2901
G1 X152.137 Y141.717 E0.2908
G1 X149.716 Y144.137 E0.3106
G1 X149.151 Y144.137 E0.3139
G1 X150.987 Y142.301 E0.3289
G1 X150.609 Y142.451 E0.3312
G1 X150.155 Y142.567 E0.3339
G1 X148.585 Y144.137 E0.3467
G1 X148.019 Y144.137 E0.3500
G1 X149.481 Y142.676 E0.3619
G1 X149.327 Y142.696 E0.3628
G1 X148.896 Y142.696 E0.3653
G1 X147.454 Y144.137 E0.3771
G1 X146.888 Y144.137 E0.3804
G1 X148.368 Y142.657 E0.3925
G1 X148.025 Y142.614 E0.3945
G1 X147.883 Y142.577 E0.3953
G1 X146.322 Y144.137 E0.4080
G1 X145.757 Y144.137 E0.4113
G1 X147.433 Y142.462 E0.4250
G1 X147.391 Y142.451 E0.4252
G1 X147.023 Y142.305 E0.4275
G1 X145.191 Y144.137 E0.4425
G1 X144.625 Y144.137 E0.4458
G1 X146.634 Y142.128 E0.4622
G1 X146.269 Y141.928 E0.4646
G1 X144.060 Y144.137 E0.4826
G1 X143.494 Y144.137 E0.4859
G1 X145.936 Y141.696 E0.5058
G1 X145.682 Y141.511 E0.5076
G1 X145.616 Y141.450 E0.5082
G1 X142.928 Y144.137 E0.5301
G1 X142.363 Y144.137 E0.5334
G1 X145.324 Y141.176 E0.5576
G1 X145.205 Y141.064 E0.5585
G1 X145.054 Y140.881 E0.5599
G1 X142.363 Y143.572 E0.5818
G1 X142.363 Y143.006 E0.5851
G1 X144.798 Y140.571 E0.6050
G1 X144.792 Y140.564 E0.6050
G1 X144.653 Y140.347 E0.6065
