; G-Code generated by Simplify3D(R) Version 3.0.2
; Apr 30, 2017 at 4:57:47 PM
; Settings Summary
;   processName,Process1
;   applyToModels,cube_snap,hull_snap_into
;   profileName,LulzBot TAZ 5
;   profileVersion,2016-04-15 18:39:51
;   baseProfile,
;   printMaterial,PLA
;   printQuality,High
;   printExtruders,
;   extruderName,Primary Extruder
;   extruderToolheadNumber,0
;   extruderDiameter,0.5
;   extruderAutoWidth,0
;   extruderWidth,0.4
;   extrusionMultiplier,1.01
;   extruderUseRetract,1
;   extruderRetractionDistance,1.5
;   extruderExtraRestartDistance,0
;   extruderRetractionZLift,0.1
;   extruderRetractionSpeed,600
;   extruderUseCoasting,0
;   extruderCoastingDistance,0.2
;   extruderUseWipe,0
;   extruderWipeDistance,5
;   primaryExtruder,0
;   layerHeight,0.1
;   topSolidLayers,6
;   bottomSolidLayers,6
;   perimeterOutlines,3
;   printPerimetersInsideOut,0
;   startPointOption,2
;   startPointOriginX,0
;   startPointOriginY,0
;   startPointOriginZ,300
;   sequentialIslands,0
;   spiralVaseMode,0
;   firstLayerHeightPercentage,90
;   firstLayerWidthPercentage,100
;   firstLayerUnderspeed,0.5
;   useRaft,0
;   raftExtruder,0
;   raftLayers,3
;   raftOffset,3
;   raftSeparationDistance,0.14
;   raftInfill,85
;   disableRaftBaseLayers,0
;   useSkirt,1
;   skirtExtruder,0
;   skirtLayers,2
;   skirtOutlines,2
;   skirtOffset,6
;   usePrimePillar,0
;   primePillarExtruder,999
;   primePillarWidth,12
;   primePillarLocation,7
;   primePillarSpeedMultiplier,1
;   useOozeShield,0
;   oozeShieldExtruder,999
;   oozeShieldOffset,2
;   oozeShieldOutlines,1
;   oozeShieldSidewallShape,1
;   oozeShieldSidewallAngle,30
;   oozeShieldSpeedMultiplier,1
;   infillExtruder,0
;   internalInfillPattern,Rectilinear
;   externalInfillPattern,Rectilinear
;   infillPercentage,30
;   outlineOverlapPercentage,25
;   infillExtrusionWidthPercentage,150
;   minInfillLength,5
;   infillLayerInterval,1
;   infillAngles,45,-45
;   overlapInfillAngles,0
;   generateSupport,1
;   supportExtruder,0
;   supportInfillPercentage,40
;   supportExtraInflation,0
;   denseSupportLayers,0
;   denseSupportInfillPercentage,70
;   supportLayerInterval,1
;   supportHorizontalPartOffset,0.35
;   supportUpperSeparationLayers,2
;   supportLowerSeparationLayers,2
;   supportType,0
;   supportGridSpacing,4
;   maxOverhangAngle,40
;   supportAngles,0
;   temperatureName,Primary Extruder,Heated Bed
;   temperatureNumber,0,1
;   temperatureSetpointCount,1,1
;   temperatureSetpointLayers,1,1
;   temperatureSetpointTemperatures,205,60
;   temperatureStabilizeAtStartup,1,1
;   temperatureHeatedBed,0,1
;   temperatureRelayBetweenLayers,0,0
;   temperatureRelayBetweenLoops,0,0
;   fanLayers,1,2
;   fanSpeeds,0,100
;   blipFanToFullPower,1
;   adjustSpeedForCooling,1
;   minSpeedLayerTime,15
;   minCoolingSpeedSlowdown,20
;   increaseFanForCooling,0
;   minFanLayerTime,45
;   maxCoolingFanSpeed,100
;   increaseFanForBridging,0
;   bridgingFanSpeed,100
;   use5D,1
;   relativeEdistances,0
;   allowEaxisZeroing,1
;   independentExtruderAxes,0
;   includeM10123,0
;   stickySupport,1
;   applyToolheadOffsets,0
;   gcodeXoffset,0
;   gcodeYoffset,0
;   gcodeZoffset,0
;   overrideMachineDefinition,1
;   machineTypeOverride,0
;   strokeXoverride,298
;   strokeYoverride,275
;   strokeZoverride,250
;   originOffsetXoverride,0
;   originOffsetYoverride,0
;   originOffsetZoverride,0
;   homeXdirOverride,-1
;   homeYdirOverride,-1
;   homeZdirOverride,-1
;   flipXoverride,1
;   flipYoverride,-1
;   flipZoverride,1
;   toolheadOffsets,0,0|0,0|0,0|0,0|0,0|0,0
;   overrideFirmwareConfiguration,1
;   firmwareTypeOverride,RepRap (Marlin/Repetier/Sprinter)
;   GPXconfigOverride,r2
;   baudRateOverride,115200
;   overridePrinterModels,1
;   printerModelsOverride,LulzBot_TAZ3.stl
;   startingGcode,G21		;metric values,G90		;absolute positioning,M82		;set extruder to absolute mode,M107		;start with the fan off,G28 X0 Y0		;move X/Y to min endstops,G28 Z0		;move Z to min endstops,G1 Z15.0 F3000		;move the platform down 15mm,G92 E0		;zero the extruded length,G1 F200 E3		;extrude 3mm of feed stock,G92 E0		;zero the extruded length again
;   layerChangeGcode,
;   retractionGcode,
;   toolChangeGcode,
;   endingGcode,M104 S0		;extruder heater off,M140 S0		;heated bed heater off (if you have it),G91		;relative positioning,G1 E-1 F300		;retract the filament a bit before lifting the nozzle, to release some of the pressure,G1 Z+0.5 E-5 X-20 Y-20 F3000	;move Z up a bit and retract filament even more,G28 X0 Y0		;move X/Y to min endstops, so the head is out of the way,M84		;steppers off,G90		;absolute positioning
;   createX3G,0
;   celebration,0
;   celebrationSong,Random Song
;   createMB5G,0
;   postProcessing,
;   defaultSpeed,3000
;   outlineUnderspeed,0.35
;   solidInfillUnderspeed,0.8
;   supportUnderspeed,0.7
;   rapidXYspeed,4800
;   rapidZspeed,800
;   minBridgingArea,50
;   bridgingExtraInflation,0
;   bridgingExtrusionMultiplier,1
;   bridgingSpeedMultiplier,1
;   filamentDiameter,2.94
;   filamentPricePerKg,46
;   filamentDensity,1.25
;   useMinPrintHeight,0
;   minPrintHeight,0
;   useMaxPrintHeight,0
;   maxPrintHeight,0
;   useDiaphragm,0
;   diaphragmLayerInterval,20
;   robustSlicing,1
;   mergeAllIntoSolid,0
;   onlyRetractWhenCrossingOutline,1
;   retractBetweenLayers,1
;   useRetractionMinTravel,0
;   retractionMinTravel,3
;   retractWhileWiping,0
;   onlyWipeOutlines,1
;   avoidCrossingOutline,0
;   maxMovementDetourFactor,3
;   toolChangeRetractionDistance,12
;   toolChangeExtraRestartDistance,-0.5
;   toolChangeRetractionSpeed,600
;   allowThinWallGapFill,1
;   thinWallAllowedOverlapPercentage,10
;   horizontalSizeCompensation,0
G90
M82
M106 S0
M140 S60
M190 S60
M104 S205 T0
M109 S205 T0
G21		;metric values
G90		;absolute positioning
M82		;set extruder to absolute mode
M107		;start with the fan off
G28 X0 Y0		;move X/Y to min endstops
G28 Z0		;move Z to min endstops
G1 Z15.0 F3000		;move the platform down 15mm
G92 E0		;zero the extruded length
G1 F200 E3		;extrude 3mm of feed stock
G92 E0		;zero the extruded length again
G92 E0
G1 E-1.5000 F600
G1 Z0.190 F800
; layer 1, Z = 0.09
T0
; tool H0.100 W0.400
; skirt
G1 X133.103 Y121.634 F4800
G1 Z0.090 F800
G1 E0.0000 F180
G92 E0
G1 X136.786 Y117.950 E0.0310 F1500
G1 X137.007 Y117.859 E0.0324
G1 X160.993 Y117.859 E0.1752
G1 X161.214 Y117.950 E0.1766
G1 X164.897 Y121.634 E0.2076
G1 X164.989 Y121.854 E0.2090
G1 X164.989 Y128.173 E0.2466
G1 X164.897 Y128.393 E0.2480
G1 X161.214 Y132.077 E0.2790
G1 X160.993 Y132.168 E0.2805
G1 X137.007 Y132.168 E0.4232
G1 X136.786 Y132.077 E0.4246
G1 X133.103 Y128.393 E0.4556
G1 X133.011 Y128.173 E0.4570
G1 X133.011 Y121.854 E0.4946
G1 X133.103 Y121.634 E0.4961
G1 X137.007 Y133.787 F4800
G92 E0
G1 X154.741 Y133.787 E0.1055 F1500
G1 X154.961 Y133.879 E0.1070
G1 X158.645 Y137.562 E0.1380
G1 X158.736 Y137.783 E0.1394
G1 X158.736 Y155.517 E0.2449
G1 X158.645 Y155.738 E0.2463
G1 X154.961 Y159.421 E0.2773
G1 X154.741 Y159.512 E0.2788
G1 X137.007 Y159.512 E0.3843
G1 X136.786 Y159.421 E0.3857
G1 X133.103 Y155.738 E0.4167
G1 X133.011 Y155.517 E0.4181
G1 X133.011 Y137.783 E0.5237
G1 X133.103 Y137.562 E0.5251
G1 X136.786 Y133.879 E0.5561
G1 X137.007 Y133.787 E0.5575
G1 X137.086 Y134.187 F4800
G92 E0
G1 X154.661 Y134.187 E0.1046 F1500
G1 X154.735 Y134.218 E0.1051
G1 X158.306 Y137.789 E0.1351
G1 X158.336 Y137.862 E0.1356
G1 X158.336 Y155.437 E0.2402
G1 X158.306 Y155.511 E0.2407
G1 X154.735 Y159.082 E0.2707
G1 X154.661 Y159.112 E0.2712
G1 X137.086 Y159.112 E0.3758
G1 X137.013 Y159.082 E0.3762
G1 X133.442 Y155.511 E0.4063
G1 X133.411 Y155.437 E0.4068
G1 X133.411 Y137.862 E0.5114
G1 X133.442 Y137.789 E0.5118
G1 X137.013 Y134.218 E0.5419
G1 X137.086 Y134.187 E0.5424
G1 X137.086 Y131.768 F4800
G92 E0
G1 X137.013 Y131.738 E0.0005 F1500
G1 X133.442 Y128.167 E0.0305
G1 X133.411 Y128.093 E0.0310
G1 X133.411 Y121.934 E0.0677
G1 X133.442 Y121.860 E0.0681
G1 X137.013 Y118.289 E0.0982
G1 X137.086 Y118.259 E0.0987
G1 X160.914 Y118.259 E0.2405
G1 X160.987 Y118.289 E0.2409
G1 X164.558 Y121.860 E0.2710
G1 X164.589 Y121.934 E0.2715
G1 X164.589 Y128.093 E0.3081
G1 X164.558 Y128.167 E0.3086
G1 X160.987 Y131.738 E0.3386
G1 X160.914 Y131.768 E0.3391
G1 X137.086 Y131.768 E0.4809
G92 E0
G1 E-1.5000 F600
G1 Z0.190 F800
; outer perimeter
G1 X139.811 Y140.587 F4800
G1 Z0.090 F800
G1 E0.0000 F600
G92 E0
G1 X151.936 Y140.587 E0.0722 F525
G1 X151.936 Y152.712 E0.1443
G1 X139.811 Y152.712 E0.2165
G1 X139.811 Y140.587 E0.2886
; inner perimeter
G1 X140.211 Y140.987 F4800
G92 E0
G1 X151.536 Y140.987 E0.0674 F850
G1 X151.536 Y152.312 E0.1348
G1 X140.211 Y152.312 E0.2022
G1 X140.211 Y140.987 E0.2696
; inner perimeter
G1 X140.611 Y141.387 F4800
G92 E0
G1 X151.136 Y141.387 E0.0626 F1175
G1 X151.136 Y151.912 E0.1253
G1 X140.611 Y151.912 E0.1879
G1 X140.611 Y141.387 E0.2505
; solid layer
G1 X140.911 Y142.195 F4800
G92 E0
G1 X141.419 Y141.687 E0.0043 F1200
G1 X141.984 Y141.687 E0.0076
G1 X140.911 Y142.760 E0.0167
G1 X140.911 Y143.326 E0.0200
G1 X142.550 Y141.687 E0.0338
G1 X143.116 Y141.687 E0.0372
G1 X140.911 Y143.892 E0.0557
G1 X140.911 Y144.457 E0.0591
G1 X143.681 Y141.687 E0.0824
G1 X144.247 Y141.687 E0.0858
G1 X140.911 Y145.023 E0.1139
G1 X140.911 Y145.589 E0.1172
G1 X144.813 Y141.687 E0.1501
G1 X145.378 Y141.687 E0.1534
G1 X140.911 Y146.154 E0.1910
G1 X140.911 Y146.720 E0.1944
G1 X145.944 Y141.687 E0.2367
G1 X146.510 Y141.687 E0.2401
G1 X140.911 Y147.286 E0.2872
G1 X140.911 Y147.852 E0.2906
G1 X147.075 Y141.687 E0.3425
G1 X147.641 Y141.687 E0.3458
G1 X140.911 Y148.417 E0.4025
G1 X140.911 Y148.983 E0.4058
G1 X148.207 Y141.687 E0.4672
G1 X148.772 Y141.687 E0.4706
G1 X140.911 Y149.549 E0.5368
G1 X140.911 Y150.114 E0.5401
G1 X149.338 Y141.687 E0.6111
G1 X149.904 Y141.687 E0.6144
G1 X140.911 Y150.680 E0.6901
G1 X140.911 Y151.246 E0.6935
G1 X150.469 Y141.687 E0.7739
G1 X150.836 Y141.687 E0.7761
G1 X150.836 Y141.886 E0.7773
G1 X141.110 Y151.612 E0.8591
G1 X141.676 Y151.612 E0.8625
G1 X150.836 Y142.452 E0.9396
G1 X150.836 Y143.018 E0.9430
G1 X142.242 Y151.612 E1.0153
G1 X142.807 Y151.612 E1.0187
G1 X150.836 Y143.583 E1.0862
G1 X150.836 Y144.149 E1.0896
G1 X143.373 Y151.612 E1.1524
G1 X143.939 Y151.612 E1.1558
G1 X150.836 Y144.715 E1.2138
G1 X150.836 Y145.280 E1.2172
G1 X144.504 Y151.612 E1.2705
G1 X145.070 Y151.612 E1.2739
G1 X150.836 Y145.846 E1.3224
G1 X150.836 Y146.412 E1.3258
G1 X145.636 Y151.612 E1.3695
G1 X146.201 Y151.612 E1.3729
G1 X150.836 Y146.978 E1.4119
G1 X150.836 Y147.543 E1.4153
G1 X146.767 Y151.612 E1.4495
G1 X147.333 Y151.612 E1.4529
G1 X150.836 Y148.109 E1.4824
G1 X150.836 Y148.675 E1.4857
G1 X147.898 Y151.612 E1.5105
G1 X148.464 Y151.612 E1.5138
G1 X150.836 Y149.240 E1.5338
G1 X150.836 Y149.806 E1.5372
G1 X149.030 Y151.612 E1.5524
G1 X149.595 Y151.612 E1.5557
G1 X150.836 Y150.372 E1.5662
G1 X150.836 Y150.937 E1.5695
G1 X150.161 Y151.612 E1.5752
G1 X150.727 Y151.612 E1.5786
G1 X150.836 Y151.503 E1.5795
G92 E0
G1 E-1.5000 F600
G1 Z0.190 F800
; support
G1 X156.148 Y134.500 F4800
G1 Z0.090 F800
G1 E0.0000 F600
G92 E0
G1 X157.160 Y134.500 E0.0060 F1050
G1 X157.160 Y133.500 E0.0120
G1 X155.092 Y133.500 E0.0243
G92 E0
G1 E-1.5000 F600
G1 Z0.190 F800
G1 X156.842 Y123.500 F4800
G1 Z0.090 F800
G1 E0.0000 F600
G92 E0
G1 X141.133 Y123.500 E0.0935 F1050
G1 X141.133 Y122.500 E0.0994
G1 X156.842 Y122.500 E0.1929
G1 X156.842 Y121.500 E0.1989
G1 X145.060 Y121.500 E0.2690
G92 E0
G1 E-1.5000 F600
G1 Z0.190 F800
G1 X140.840 Y127.500 F4800
G1 Z0.090 F800
G1 E0.0000 F600
G92 E0
G1 X157.160 Y127.500 E0.0971 F1050
G1 X157.160 Y128.500 E0.1031
G1 X140.840 Y128.500 E0.2002
G1 X140.840 Y129.500 E0.2061
G1 X157.160 Y129.500 E0.3033
G1 X157.160 Y130.500 E0.3092
G1 X140.840 Y130.500 E0.4063
G92 E0
G1 E-1.5000 F600
G1 Z0.290 F800
; layer 2, Z = 0.19
M106 S255
; skirt
G1 X137.007 Y132.168 F4800
G1 Z0.190 F800
G1 E0.0000 F600
G92 E0
G1 X136.786 Y132.077 E0.0014 F3000
G1 X133.103 Y128.393 E0.0324
G1 X133.011 Y128.173 E0.0338
G1 X133.011 Y121.854 E0.0714
G1 X133.103 Y121.634 E0.0729
G1 X136.786 Y117.950 E0.1039
G1 X137.007 Y117.859 E0.1053
G1 X160.993 Y117.859 E0.2480
G1 X161.214 Y117.950 E0.2495
G1 X164.897 Y121.634 E0.2805
G1 X164.989 Y121.854 E0.2819
G1 X164.989 Y128.173 E0.3195
G1 X164.897 Y128.393 E0.3209
G1 X161.214 Y132.077 E0.3519
G1 X160.993 Y132.168 E0.3533
G1 X137.007 Y132.168 E0.4961
G1 X137.007 Y133.787 F4800
G92 E0
G1 X154.741 Y133.787 E0.1055 F3000
G1 X154.961 Y133.879 E0.1070
G1 X158.645 Y137.562 E0.1380
G1 X158.736 Y137.783 E0.1394
G1 X158.736 Y155.517 E0.2449
G1 X158.645 Y155.738 E0.2463
G1 X154.961 Y159.421 E0.2773
G1 X154.741 Y159.512 E0.2788
G1 X137.007 Y159.512 E0.3843
G1 X136.786 Y159.421 E0.3857
G1 X133.103 Y155.738 E0.4167
G1 X133.011 Y155.517 E0.4181
G1 X133.011 Y137.783 E0.5237
G1 X133.103 Y137.562 E0.5251
G1 X136.786 Y133.879 E0.5561
G1 X137.007 Y133.787 E0.5575
G1 X137.086 Y134.187 F4800
G92 E0
G1 X154.661 Y134.187 E0.1046 F3000
G1 X154.735 Y134.218 E0.1051
G1 X158.306 Y137.789 E0.1351
G1 X158.336 Y137.862 E0.1356
G1 X158.336 Y155.437 E0.2402
G1 X158.306 Y155.511 E0.2407
G1 X154.735 Y159.082 E0.2707
G1 X154.661 Y159.112 E0.2712
G1 X137.086 Y159.112 E0.3758
G1 X137.013 Y159.082 E0.3762
G1 X133.442 Y155.511 E0.4063
G1 X133.411 Y155.437 E0.4068
G1 X133.411 Y137.862 E0.5114
G1 X133.442 Y137.789 E0.5118
G1 X137.013 Y134.218 E0.5419
G1 X137.086 Y134.187 E0.5424
G1 X137.086 Y131.768 F4800
G92 E0
G1 X137.013 Y131.738 E0.0005 F3000
G1 X133.442 Y128.167 E0.0305
G1 X133.411 Y128.093 E0.0310
G1 X133.411 Y121.934 E0.0677
G1 X133.442 Y121.860 E0.0681
G1 X137.013 Y118.289 E0.0982
G1 X137.086 Y118.259 E0.0987
G1 X160.914 Y118.259 E0.2405
G1 X160.987 Y118.289 E0.2409
G1 X164.558 Y121.860 E0.2710
G1 X164.589 Y121.934 E0.2715
G1 X164.589 Y128.093 E0.3081
G1 X164.558 Y128.167 E0.3086
G1 X160.987 Y131.738 E0.3386
G1 X160.914 Y131.768 E0.3391
G1 X137.086 Y131.768 E0.4809
G92 E0
G1 E-1.5000 F600
G1 Z0.290 F800
; outer perimeter
G1 X139.811 Y125.368 F4800
G1 Z0.190 F800
G1 E0.0000 F600
G92 E0
G1 X139.811 Y124.659 E0.0042 F1050
G1 X158.189 Y124.659 E0.1136
G1 X158.189 Y125.368 E0.1178
G1 X139.811 Y125.368 E0.2272
; inner perimeter
; inner perimeter
; gap fill
G1 X140.524 Y125.064 F4800
G92 E0
G1 X140.423 Y124.963 E0.0009 F3000
G1 X140.988 Y124.963 E0.0042
G1 X141.090 Y125.064 E0.0051
G1 X141.655 Y125.064 E0.0084
G1 X141.554 Y124.963 E0.0093
G1 X142.120 Y124.963 E0.0127
G1 X142.221 Y125.064 E0.0135
G1 X142.787 Y125.064 E0.0169
G1 X142.685 Y124.963 E0.0177
G1 X143.251 Y124.963 E0.0211
G1 X143.352 Y125.064 E0.0219
G1 X143.918 Y125.064 E0.0253
G1 X143.817 Y124.963 E0.0262
G1 X144.382 Y124.963 E0.0295
G1 X144.484 Y125.064 E0.0304
G1 X145.049 Y125.064 E0.0338
G1 X144.948 Y124.963 E0.0346
G1 X145.514 Y124.963 E0.0380
G1 X145.615 Y125.064 E0.0388
G1 X146.181 Y125.064 E0.0422
G1 X146.080 Y124.963 E0.0430
G1 X146.645 Y124.963 E0.0464
G1 X146.747 Y125.064 E0.0473
G1 X147.312 Y125.064 E0.0506
G1 X147.211 Y124.963 E0.0515
G1 X147.777 Y124.963 E0.0548
G1 X147.878 Y125.064 E0.0557
G1 X148.444 Y125.064 E0.0591
G1 X148.342 Y124.963 E0.0599
G1 X148.908 Y124.963 E0.0633
G1 X149.009 Y125.064 E0.0641
G1 X149.575 Y125.064 E0.0675
G1 X149.474 Y124.963 E0.0684
G1 X150.039 Y124.963 E0.0717
G1 X150.141 Y125.064 E0.0726
G1 X150.706 Y125.064 E0.0759
G1 X150.605 Y124.963 E0.0768
G1 X151.171 Y124.963 E0.0802
G1 X151.272 Y125.064 E0.0810
G1 X151.838 Y125.064 E0.0844
G1 X151.736 Y124.963 E0.0852
G1 X152.302 Y124.963 E0.0886
G1 X152.403 Y125.064 E0.0895
G1 X152.969 Y125.064 E0.0928
G1 X152.868 Y124.963 E0.0937
G1 X153.433 Y124.963 E0.0970
G1 X153.535 Y125.064 E0.0979
G1 X154.100 Y125.064 E0.1013
G1 X153.999 Y124.963 E0.1021
G1 X154.565 Y124.963 E0.1055
G1 X154.666 Y125.064 E0.1063
G1 X155.232 Y125.064 E0.1097
G1 X155.130 Y124.963 E0.1106
G1 X155.696 Y124.963 E0.1139
G1 X155.797 Y125.064 E0.1148
G1 X156.363 Y125.064 E0.1181
G1 X156.262 Y124.963 E0.1190
G1 X156.828 Y124.963 E0.1224
G1 X156.929 Y125.064 E0.1232
G1 X157.495 Y125.064 E0.1266
G1 X157.393 Y124.963 E0.1274
G92 E0
G1 E-1.5000 F600
G1 Z0.290 F800
; outer perimeter
G1 X151.936 Y140.587 F4800
G1 Z0.190 F800
