; G-Code generated by Simplify3D(R) Version 3.1.1
; May 2, 2017 at 9:07:56 PM
; Settings Summary
;   processName,Process1
;   applyToModels,cube,cube(2)
;   profileName,LulzBot TAZ 5
;   profileVersion,2016-04-15 18:39:51
;   baseProfile,
;   printMaterial,PLA
;   printQuality,High
;   printExtruders,
;   extruderName,Primary Extruder
;   extruderToolheadNumber,0
;   extruderDiameter,0.5
;   extruderAutoWidth,0
;   extruderWidth,0.4
;   extrusionMultiplier,1.01
;   extruderUseRetract,1
;   extruderRetractionDistance,1.5
;   extruderExtraRestartDistance,0
;   extruderRetractionZLift,0.1
;   extruderRetractionSpeed,600
;   extruderUseCoasting,0
;   extruderCoastingDistance,0.2
;   extruderUseWipe,0
;   extruderWipeDistance,5
;   primaryExtruder,0
;   layerHeight,0.1
;   topSolidLayers,6
;   bottomSolidLayers,6
;   perimeterOutlines,3
;   printPerimetersInsideOut,1
;   startPointOption,2
;   startPointOriginX,0
;   startPointOriginY,0
;   startPointOriginZ,300
;   sequentialIslands,0
;   spiralVaseMode,0
;   firstLayerHeightPercentage,90
;   firstLayerWidthPercentage,100
;   firstLayerUnderspeed,0.5
;   useRaft,0
;   raftExtruder,0
;   raftLayers,3
;   raftOffset,3
;   raftSeparationDistance,0.14
;   raftInfill,85
;   disableRaftBaseLayers,0
;   useSkirt,1
;   skirtExtruder,0
;   skirtLayers,2
;   skirtOutlines,2
;   skirtOffset,6
;   usePrimePillar,0
;   primePillarExtruder,999
;   primePillarWidth,12
;   primePillarLocation,7
;   primePillarSpeedMultiplier,1
;   useOozeShield,0
;   oozeShieldExtruder,999
;   oozeShieldOffset,2
;   oozeShieldOutlines,1
;   oozeShieldSidewallShape,1
;   oozeShieldSidewallAngle,30
;   oozeShieldSpeedMultiplier,1
;   infillExtruder,0
;   internalInfillPattern,Rectilinear
;   externalInfillPattern,Rectilinear
;   infillPercentage,30
;   outlineOverlapPercentage,25
;   infillExtrusionWidthPercentage,150
;   minInfillLength,5
;   infillLayerInterval,1
;   infillAngles,45,-45
;   overlapInfillAngles,0
;   generateSupport,1
;   supportExtruder,0
;   supportInfillPercentage,40
;   supportExtraInflation,0
;   denseSupportLayers,0
;   denseSupportInfillPercentage,70
;   supportLayerInterval,1
;   supportHorizontalPartOffset,0.35
;   supportUpperSeparationLayers,2
;   supportLowerSeparationLayers,2
;   supportType,0
;   supportGridSpacing,4
;   maxOverhangAngle,40
;   supportAngles,0
;   temperatureName,Primary Extruder,Heated Bed
;   temperatureNumber,0,1
;   temperatureSetpointCount,1,1
;   temperatureSetpointLayers,1,1
;   temperatureSetpointTemperatures,205,60
;   temperatureStabilizeAtStartup,1,1
;   temperatureHeatedBed,0,1
;   temperatureRelayBetweenLayers,0,0
;   temperatureRelayBetweenLoops,0,0
;   fanLayers,1,2
;   fanSpeeds,0,100
;   blipFanToFullPower,1
;   adjustSpeedForCooling,1
;   minSpeedLayerTime,15
;   minCoolingSpeedSlowdown,20
;   increaseFanForCooling,0
;   minFanLayerTime,45
;   maxCoolingFanSpeed,100
;   increaseFanForBridging,0
;   bridgingFanSpeed,100
;   use5D,1
;   relativeEdistances,0
;   allowEaxisZeroing,1
;   independentExtruderAxes,0
;   includeM10123,0
;   stickySupport,1
;   applyToolheadOffsets,0
;   gcodeXoffset,0
;   gcodeYoffset,0
;   gcodeZoffset,0
;   overrideMachineDefinition,1
;   machineTypeOverride,0
;   strokeXoverride,298
;   strokeYoverride,275
;   strokeZoverride,250
;   originOffsetXoverride,0
;   originOffsetYoverride,0
;   originOffsetZoverride,0
;   homeXdirOverride,-1
;   homeYdirOverride,-1
;   homeZdirOverride,-1
;   flipXoverride,1
;   flipYoverride,-1
;   flipZoverride,1
;   toolheadOffsets,0,0|0,0|0,0|0,0|0,0|0,0
;   overrideFirmwareConfiguration,1
;   firmwareTypeOverride,RepRap (Marlin/Repetier/Sprinter)
;   GPXconfigOverride,r2
;   baudRateOverride,115200
;   overridePrinterModels,1
;   printerModelsOverride,LulzBot_TAZ3.stl
;   startingGcode,G21		;metric values,G90		;absolute positioning,M82		;set extruder to absolute mode,M107		;start with the fan off,G28 X0 Y0		;move X/Y to min endstops,G28 Z0		;move Z to min endstops,G1 Z15.0 F3000		;move the platform down 15mm,G92 E0		;zero the extruded length,G1 F200 E3		;extrude 3mm of feed stock,G92 E0		;zero the extruded length again
;   layerChangeGcode,
;   retractionGcode,
;   toolChangeGcode,
;   endingGcode,M104 S0		;extruder heater off,M140 S0		;heated bed heater off (if you have it),G91		;relative positioning,G1 E-1 F300		;retract the filament a bit before lifting the nozzle, to release some of the pressure,G1 Z+0.5 E-5 X-20 Y-20 F3000	;move Z up a bit and retract filament even more,G28 X0 Y0		;move X/Y to min endstops, so the head is out of the way,M84		;steppers off,G90		;absolute positioning
;   exportFileFormat,gcode
;   celebration,0
;   celebrationSong,Random Song
;   postProcessing,
;   defaultSpeed,3000
;   outlineUnderspeed,0.35
;   solidInfillUnderspeed,0.8
;   supportUnderspeed,0.7
;   rapidXYspeed,4800
;   rapidZspeed,800
;   minBridgingArea,50
;   bridgingExtraInflation,0
;   bridgingExtrusionMultiplier,1
;   bridgingSpeedMultiplier,1
;   filamentDiameter,2.94
;   filamentPricePerKg,46
;   filamentDensity,1.25
;   useMinPrintHeight,0
;   minPrintHeight,0
;   useMaxPrintHeight,0
;   maxPrintHeight,0
;   useDiaphragm,0
;   diaphragmLayerInterval,20
;   robustSlicing,1
;   mergeAllIntoSolid,0
;   onlyRetractWhenCrossingOutline,1
;   retractBetweenLayers,1
;   useRetractionMinTravel,0
;   retractionMinTravel,3
;   retractWhileWiping,0
;   onlyWipeOutlines,1
;   avoidCrossingOutline,0
;   maxMovementDetourFactor,3
;   toolChangeRetractionDistance,12
;   toolChangeExtraRestartDistance,-0.5
;   toolChangeRetractionSpeed,600
;   allowThinWallGapFill,1
;   thinWallAllowedOverlapPercentage,10
;   horizontalSizeCompensation,0
G90
M82
M106 S0
M140 S60
M190 S60
M104 S205 T0
M109 S205 T0
G21		;metric values
G90		;absolute positioning
M82		;set extruder to absolute mode
M107		;start with the fan off
G28 X0 Y0		;move X/Y to min endstops
G28 Z0		;move Z to min endstops
G1 Z15.0 F3000		;move the platform down 15mm
G92 E0		;zero the extruded length
G1 F200 E3		;extrude 3mm of feed stock
G92 E0		;zero the extruded length again
G92 E0
G1 E-1.5000 F600
G1 Z0.190 F800
; layer 1, Z = 0.09
T0
; tool H0.100 W0.400
; skirt
G1 X136.229 Y119.650 F4800
G1 Z0.090 F800
G1 E0.0000 F180
G92 E0
G1 X139.912 Y115.966 E0.0310 F1500
G1 X140.133 Y115.875 E0.0324
G1 X157.867 Y115.875 E0.1380
G1 X158.088 Y115.966 E0.1394
G1 X161.771 Y119.650 E0.1704
G1 X161.862 Y119.870 E0.1718
G1 X161.862 Y155.130 E0.3816
G1 X161.771 Y155.350 E0.3831
G1 X158.088 Y159.034 E0.4141
G1 X157.867 Y159.125 E0.4155
G1 X140.133 Y159.125 E0.5210
G1 X139.912 Y159.034 E0.5224
G1 X136.229 Y155.350 E0.5534
G1 X136.137 Y155.130 E0.5549
G1 X136.137 Y119.870 E0.7647
G1 X136.229 Y119.650 E0.7661
G1 X136.568 Y119.876 F4800
G92 E0
G1 X140.139 Y116.305 E0.0301 F1500
G1 X140.212 Y116.275 E0.0305
G1 X157.788 Y116.275 E0.1351
G1 X157.861 Y116.305 E0.1356
G1 X161.432 Y119.876 E0.1656
G1 X161.462 Y119.950 E0.1661
G1 X161.462 Y155.050 E0.3750
G1 X161.432 Y155.124 E0.3755
G1 X157.861 Y158.695 E0.4055
G1 X157.788 Y158.725 E0.4060
G1 X140.212 Y158.725 E0.5106
G1 X140.139 Y158.695 E0.5111
G1 X136.568 Y155.124 E0.5411
G1 X136.537 Y155.050 E0.5416
G1 X136.537 Y119.950 E0.7505
G1 X136.568 Y119.876 E0.7510
G92 E0
G1 E-1.5000 F600
G1 Z0.190 F800
; inner perimeter
G1 X143.738 Y123.475 F4800
G1 Z0.090 F800
G1 E0.0000 F600
G92 E0
G1 X146.615 Y123.475 E0.0171 F1175
G1 X145.919 Y123.867 E0.0219
G1 X145.450 Y124.198 E0.0253
G1 X145.341 Y124.286 E0.0261
G1 X144.916 Y124.671 E0.0295
G1 X144.518 Y125.113 E0.0331
G1 X144.168 Y125.595 E0.0366
G1 X143.738 Y126.338 E0.0417
G1 X143.738 Y123.475 E0.0588
G1 X143.738 Y131.157 F4800
G92 E0
G1 X144.223 Y131.963 E0.0056 F1175
G1 X144.576 Y132.431 E0.0091
G1 X144.853 Y132.739 E0.0116
G1 X145.282 Y133.142 E0.0151
G1 X145.755 Y133.501 E0.0186
G1 X146.575 Y134.000 E0.0243
G1 X143.738 Y134.000 E0.0412
G1 X143.738 Y131.157 E0.0581
G92 E0
G1 E-1.5000 F600
G1 Z0.190 F800
G1 X151.395 Y134.000 F4800
G1 Z0.090 F800
G1 E0.0000 F600
G92 E0
G1 X152.123 Y133.582 E0.0050 F1175
G1 X152.606 Y133.234 E0.0085
G1 X153.049 Y132.839 E0.0121
G1 X153.451 Y132.400 E0.0156
G1 X153.804 Y131.922 E0.0192
G1 X154.262 Y131.146 E0.0245
G1 X154.262 Y134.000 E0.0415
G1 X151.395 Y134.000 E0.0586
G92 E0
G1 E-1.5000 F600
G1 Z0.190 F800
G1 X154.262 Y126.329 F4800
G1 Z0.090 F800
G1 E0.0000 F600
G92 E0
G1 X153.804 Y125.553 E0.0054 F1175
G1 X153.451 Y125.075 E0.0089
G1 X153.054 Y124.641 E0.0124
G1 X152.749 Y124.360 E0.0149
G1 X152.285 Y124.002 E0.0184
G1 X151.436 Y123.475 E0.0243
G1 X154.262 Y123.475 E0.0411
G1 X154.262 Y126.329 E0.0581
G92 E0
G1 E-1.5000 F600
G1 Z0.190 F800
; inner perimeter
G1 X143.337 Y123.075 F4800
G1 Z0.090 F800
G1 E0.0000 F600
G92 E0
G1 X148.741 Y123.075 E0.0322 F850
G1 X148.756 Y123.379 E0.0340
G1 X148.194 Y123.435 E0.0373
G1 X147.651 Y123.547 E0.0406
G1 X147.123 Y123.713 E0.0439
G1 X146.615 Y123.934 E0.0472
G1 X146.133 Y124.205 E0.0505
G1 X145.691 Y124.517 E0.0537
G1 X145.600 Y124.590 E0.0544
G1 X145.199 Y124.953 E0.0576
G1 X144.829 Y125.365 E0.0609
G1 X144.504 Y125.813 E0.0642
G1 X144.227 Y126.292 E0.0675
G1 X144.000 Y126.798 E0.0708
G1 X143.828 Y127.318 E0.0741
G1 X143.741 Y127.688 E0.0763
G1 X143.661 Y128.225 E0.0796
G1 X143.648 Y128.451 E0.0809
G1 X143.338 Y128.441 E0.0828
G1 X143.338 Y123.075 E0.1147
G1 X149.222 Y123.383 F4800
G92 E0
G1 X149.234 Y123.075 E0.0018 F850
G1 X154.662 Y123.075 E0.0341
G1 X154.662 Y128.487 E0.0664
G1 X154.351 Y128.495 E0.0682
G1 X154.335 Y128.184 E0.0701
G1 X154.249 Y127.637 E0.0734
G1 X154.108 Y127.102 E0.0766
G1 X153.914 Y126.589 E0.0799
G1 X153.750 Y126.247 E0.0822
G1 X153.471 Y125.775 E0.0854
G1 X153.141 Y125.329 E0.0887
G1 X152.770 Y124.923 E0.0920
G1 X152.491 Y124.666 E0.0943
G1 X152.057 Y124.331 E0.0975
G1 X151.586 Y124.039 E0.1008
G1 X151.088 Y123.797 E0.1041
G1 X150.573 Y123.610 E0.1074
G1 X150.206 Y123.512 E0.1096
G1 X149.666 Y123.416 E0.1129
G1 X149.222 Y123.383 E0.1156
G92 E0
G1 E-1.5000 F600
G1 Z0.190 F800
G1 X154.351 Y128.980 F4800
G1 Z0.090 F800
G1 E0.0000 F600
G92 E0
G1 X154.662 Y128.988 E0.0019 F850
G1 X154.662 Y134.400 E0.0341
G1 X149.301 Y134.400 E0.0660
G1 X149.295 Y134.086 E0.0678
G1 X149.486 Y134.079 E0.0690
G1 X150.034 Y134.000 E0.0723
G1 X150.566 Y133.867 E0.0755
G1 X150.925 Y133.743 E0.0778
G1 X151.426 Y133.521 E0.0811
G1 X151.906 Y133.245 E0.0844
G1 X152.355 Y132.922 E0.0876
G1 X152.768 Y132.554 E0.0909
G1 X153.141 Y132.145 E0.0942
G1 X153.471 Y131.700 E0.0975
G1 X153.750 Y131.228 E0.1008
G1 X153.914 Y130.886 E0.1030
G1 X154.108 Y130.373 E0.1063
G1 X154.249 Y129.838 E0.1096
G1 X154.335 Y129.291 E0.1129
G1 X154.351 Y128.980 E0.1148
G92 E0
G1 E-1.5000 F600
G1 Z0.190 F800
G1 X148.776 Y134.090 F4800
G1 Z0.090 F800
G1 E0.0000 F600
G92 E0
G1 X148.766 Y134.400 E0.0018 F850
G1 X143.338 Y134.400 E0.0341
G1 X143.338 Y129.049 E0.0660
G1 X143.637 Y129.030 E0.0678
G1 X143.724 Y129.702 E0.0718
G1 X143.852 Y130.240 E0.0751
G1 X144.034 Y130.763 E0.0784
G1 X144.269 Y131.264 E0.0817
G1 X144.555 Y131.739 E0.0850
G1 X144.885 Y132.177 E0.0883
G1 X145.139 Y132.459 E0.0905
G1 X145.540 Y132.836 E0.0938
G1 X145.981 Y133.170 E0.0971
G1 X146.450 Y133.455 E0.1003
G1 X146.790 Y133.624 E0.1026
G1 X147.300 Y133.824 E0.1059
G1 X147.834 Y133.972 E0.1092
G1 X148.380 Y134.065 E0.1125
G1 X148.776 Y134.090 E0.1148
G92 E0
G1 E-1.5000 F600
G1 Z0.190 F800
; outer perimeter
G1 X142.938 Y122.675 F4800
G1 Z0.090 F800
G1 E0.0000 F600
G92 E0
G1 X155.062 Y122.675 E0.0722 F525
G1 X155.062 Y134.800 E0.1443
G1 X142.938 Y134.800 E0.2165
G1 X142.938 Y122.675 E0.2886
; inner perimeter
; inner perimeter
; outer perimeter
G1 X144.840 Y126.032 F4800
G92 E0
G1 X144.583 Y126.475 E0.0030 F525
G1 X144.373 Y126.942 E0.0061
G1 X144.213 Y127.427 E0.0091
G1 X144.134 Y127.763 E0.0112
G1 X144.060 Y128.267 E0.0142
G1 X144.039 Y128.611 E0.0163
G1 X144.052 Y129.122 E0.0193
G1 X144.118 Y129.630 E0.0224
G1 X144.236 Y130.128 E0.0254
G1 X144.405 Y130.612 E0.0285
G1 X144.623 Y131.076 E0.0315
G1 X144.887 Y131.515 E0.0346
G1 X145.194 Y131.922 E0.0376
G1 X145.425 Y132.179 E0.0396
G1 X145.798 Y132.529 E0.0427
G1 X146.206 Y132.839 E0.0457
G1 X146.643 Y133.105 E0.0488
G1 X146.952 Y133.258 E0.0508
G1 X147.427 Y133.445 E0.0539
G1 X147.921 Y133.581 E0.0569
G1 X148.426 Y133.667 E0.0600
G1 X148.937 Y133.700 E0.0630
G1 X149.449 Y133.680 E0.0661
G1 X149.957 Y133.607 E0.0691
G1 X150.452 Y133.483 E0.0722
G1 X150.778 Y133.371 E0.0742
G1 X151.245 Y133.164 E0.0773
G1 X151.689 Y132.908 E0.0803
G1 X152.105 Y132.609 E0.0834
G1 X152.486 Y132.269 E0.0864
G1 X152.832 Y131.891 E0.0894
G1 X153.137 Y131.479 E0.0925
G1 X153.396 Y131.039 E0.0955
G1 X153.546 Y130.728 E0.0976
G1 X153.726 Y130.251 E0.1006
G1 X153.857 Y129.755 E0.1037
G1 X153.936 Y129.249 E0.1067
G1 X153.963 Y128.738 E0.1098
G1 X153.936 Y128.226 E0.1128
G1 X153.857 Y127.720 E0.1159
G1 X153.726 Y127.224 E0.1189
G1 X153.546 Y126.747 E0.1220
G1 X153.396 Y126.436 E0.1240
G1 X153.137 Y125.996 E0.1270
G1 X152.832 Y125.584 E0.1301
G1 X152.487 Y125.206 E0.1331
G1 X152.233 Y124.972 E0.1352
G1 X151.829 Y124.660 E0.1382
G1 X151.393 Y124.390 E0.1413
G1 X150.932 Y124.166 E0.1443
G1 X150.452 Y123.992 E0.1474
G1 X150.119 Y123.903 E0.1494
G1 X149.616 Y123.813 E0.1525
G1 X149.107 Y123.776 E0.1555
G1 X148.762 Y123.781 E0.1576
G1 X148.254 Y123.831 E0.1606
G1 X147.752 Y123.934 E0.1636
G1 X147.263 Y124.089 E0.1667
G1 X146.793 Y124.292 E0.1697
G1 X146.347 Y124.544 E0.1728
G1 X145.932 Y124.837 E0.1758
G1 X145.860 Y124.895 E0.1764
G1 X145.483 Y125.236 E0.1794
G1 X145.141 Y125.617 E0.1824
G1 X144.840 Y126.032 E0.1855
; solid layer
G1 X144.038 Y125.184 F4800
G92 E0
G1 X144.072 Y125.218 E0.0003 F1200
G1 X144.284 Y124.925 E0.0024
G1 X144.313 Y124.893 E0.0027
G1 X144.037 Y124.618 E0.0050
G1 X144.037 Y124.052 E0.0084
G1 X144.580 Y124.595 E0.0129
G1 X144.703 Y124.459 E0.0140
G1 X144.864 Y124.313 E0.0153
G1 X144.326 Y123.775 E0.0199
G1 X144.892 Y123.775 E0.0232
G1 X145.161 Y124.045 E0.0255
G1 X145.270 Y123.958 E0.0263
G1 X145.487 Y123.804 E0.0279
G1 X145.457 Y123.775 E0.0281
G1 X153.943 Y123.775 F4800
G92 E0
G1 X153.962 Y123.795 E0.0002 F1200
G1 X153.962 Y124.361 E0.0035
G1 X153.377 Y123.775 E0.0085
G1 X152.811 Y123.775 E0.0118
G1 X153.962 Y124.926 E0.0215
G1 X153.934 Y132.251 F4800
G92 E0
G1 X153.962 Y132.280 E0.0002 F1200
G1 X153.962 Y132.846 E0.0036
G1 X153.693 Y132.577 E0.0059
G1 X153.683 Y132.591 E0.0060
G1 X153.424 Y132.873 E0.0083
G1 X153.962 Y133.412 E0.0128
G1 X153.962 Y133.700 E0.0145
G1 X153.685 Y133.700 E0.0162
G1 X153.143 Y133.158 E0.0207
G1 X152.844 Y133.424 E0.0231
G1 X153.120 Y133.700 E0.0254
G1 X152.554 Y133.700 E0.0288
G1 X152.520 Y133.666 E0.0291
G1 X144.069 Y133.700 F4800
G92 E0
G1 X144.037 Y133.669 E0.0003 F1200
G1 X144.037 Y133.103 E0.0036
G1 X144.634 Y133.700 E0.0087
G1 X145.200 Y133.700 E0.0120
G1 X144.037 Y132.537 E0.0218
G92 E0
G1 E-1.5000 F600
G1 Z0.190 F800
; inner perimeter
G1 X143.738 Y141.000 F4800
G1 Z0.090 F800
G1 E0.0000 F600
G92 E0
G1 X146.615 Y141.000 E0.0171 F1175
G1 X145.918 Y141.392 E0.0219
G1 X145.450 Y141.723 E0.0253
G1 X145.347 Y141.805 E0.0261
G1 X145.051 Y142.065 E0.0284
G1 X144.645 Y142.486 E0.0319
G1 X144.279 Y142.955 E0.0354
G1 X143.738 Y143.821 E0.0415
G1 X143.738 Y141.000 E0.0583
G1 X143.738 Y148.682 F4800
G92 E0
G1 X144.223 Y149.488 E0.0056 F1175
G1 X144.576 Y149.956 E0.0091
G1 X144.853 Y150.264 E0.0116
G1 X145.282 Y150.667 E0.0151
G1 X145.756 Y151.026 E0.0186
G1 X146.575 Y151.525 E0.0243
G1 X143.738 Y151.525 E0.0412
G1 X143.738 Y148.682 E0.0581
G92 E0
G1 E-1.5000 F600
G1 Z0.190 F800
G1 X151.395 Y151.525 F4800
G1 Z0.090 F800
G1 E0.0000 F600
G92 E0
G1 X152.123 Y151.107 E0.0050 F1175
G1 X152.606 Y150.759 E0.0085
G1 X153.049 Y150.364 E0.0121
G1 X153.451 Y149.925 E0.0156
G1 X153.804 Y149.447 E0.0192
G1 X154.262 Y148.671 E0.0245
G1 X154.262 Y151.525 E0.0415
G1 X151.395 Y151.525 E0.0586
G92 E0
G1 E-1.5000 F600
G1 Z0.190 F800
G1 X154.262 Y143.854 F4800
G1 Z0.090 F800
G1 E0.0000 F600
G92 E0
G1 X153.804 Y143.078 E0.0054 F1175
G1 X153.456 Y142.607 E0.0088
G1 X153.182 Y142.296 E0.0113
G1 X152.756 Y141.891 E0.0148
G1 X152.285 Y141.527 E0.0184
G1 X151.436 Y141.000 E0.0243
G1 X154.262 Y141.000 E0.0411
