; G-Code generated by Simplify3D(R) Version 3.0.2
; Apr 30, 2017 at 8:56:02 PM
; Settings Summary
;   processName,Process1
;   applyToModels,cube
;   profileName,LulzBot TAZ 5
;   profileVersion,2016-04-15 18:39:51
;   baseProfile,
;   printMaterial,PLA
;   printQuality,High
;   printExtruders,
;   extruderName,Primary Extruder
;   extruderToolheadNumber,0
;   extruderDiameter,0.5
;   extruderAutoWidth,0
;   extruderWidth,0.4
;   extrusionMultiplier,1.01
;   extruderUseRetract,1
;   extruderRetractionDistance,1.5
;   extruderExtraRestartDistance,0
;   extruderRetractionZLift,0.1
;   extruderRetractionSpeed,600
;   extruderUseCoasting,0
;   extruderCoastingDistance,0.2
;   extruderUseWipe,0
;   extruderWipeDistance,5
;   primaryExtruder,0
;   layerHeight,0.1
;   topSolidLayers,6
;   bottomSolidLayers,6
;   perimeterOutlines,3
;   printPerimetersInsideOut,1
;   startPointOption,2
;   startPointOriginX,0
;   startPointOriginY,0
;   startPointOriginZ,300
;   sequentialIslands,0
;   spiralVaseMode,0
;   firstLayerHeightPercentage,90
;   firstLayerWidthPercentage,100
;   firstLayerUnderspeed,0.5
;   useRaft,0
;   raftExtruder,0
;   raftLayers,3
;   raftOffset,3
;   raftSeparationDistance,0.14
;   raftInfill,85
;   disableRaftBaseLayers,0
;   useSkirt,1
;   skirtExtruder,0
;   skirtLayers,2
;   skirtOutlines,2
;   skirtOffset,6
;   usePrimePillar,0
;   primePillarExtruder,999
;   primePillarWidth,12
;   primePillarLocation,7
;   primePillarSpeedMultiplier,1
;   useOozeShield,0
;   oozeShieldExtruder,999
;   oozeShieldOffset,2
;   oozeShieldOutlines,1
;   oozeShieldSidewallShape,1
;   oozeShieldSidewallAngle,30
;   oozeShieldSpeedMultiplier,1
;   infillExtruder,0
;   internalInfillPattern,Rectilinear
;   externalInfillPattern,Rectilinear
;   infillPercentage,30
;   outlineOverlapPercentage,25
;   infillExtrusionWidthPercentage,150
;   minInfillLength,5
;   infillLayerInterval,1
;   infillAngles,45,-45
;   overlapInfillAngles,0
;   generateSupport,1
;   supportExtruder,0
;   supportInfillPercentage,40
;   supportExtraInflation,0
;   denseSupportLayers,0
;   denseSupportInfillPercentage,70
;   supportLayerInterval,1
;   supportHorizontalPartOffset,0.35
;   supportUpperSeparationLayers,2
;   supportLowerSeparationLayers,2
;   supportType,0
;   supportGridSpacing,4
;   maxOverhangAngle,40
;   supportAngles,0
;   temperatureName,Primary Extruder,Heated Bed
;   temperatureNumber,0,1
;   temperatureSetpointCount,1,1
;   temperatureSetpointLayers,1,1
;   temperatureSetpointTemperatures,205,60
;   temperatureStabilizeAtStartup,1,1
;   temperatureHeatedBed,0,1
;   temperatureRelayBetweenLayers,0,0
;   temperatureRelayBetweenLoops,0,0
;   fanLayers,1,2
;   fanSpeeds,0,100
;   blipFanToFullPower,1
;   adjustSpeedForCooling,1
;   minSpeedLayerTime,15
;   minCoolingSpeedSlowdown,20
;   increaseFanForCooling,0
;   minFanLayerTime,45
;   maxCoolingFanSpeed,100
;   increaseFanForBridging,0
;   bridgingFanSpeed,100
;   use5D,1
;   relativeEdistances,0
;   allowEaxisZeroing,1
;   independentExtruderAxes,0
;   includeM10123,0
;   stickySupport,1
;   applyToolheadOffsets,0
;   gcodeXoffset,0
;   gcodeYoffset,0
;   gcodeZoffset,0
;   overrideMachineDefinition,1
;   machineTypeOverride,0
;   strokeXoverride,298
;   strokeYoverride,275
;   strokeZoverride,250
;   originOffsetXoverride,0
;   originOffsetYoverride,0
;   originOffsetZoverride,0
;   homeXdirOverride,-1
;   homeYdirOverride,-1
;   homeZdirOverride,-1
;   flipXoverride,1
;   flipYoverride,-1
;   flipZoverride,1
;   toolheadOffsets,0,0|0,0|0,0|0,0|0,0|0,0
;   overrideFirmwareConfiguration,1
;   firmwareTypeOverride,RepRap (Marlin/Repetier/Sprinter)
;   GPXconfigOverride,r2
;   baudRateOverride,115200
;   overridePrinterModels,1
;   printerModelsOverride,LulzBot_TAZ3.stl
;   startingGcode,G21		;metric values,G90		;absolute positioning,M82		;set extruder to absolute mode,M107		;start with the fan off,G28 X0 Y0		;move X/Y to min endstops,G28 Z0		;move Z to min endstops,G1 Z15.0 F3000		;move the platform down 15mm,G92 E0		;zero the extruded length,G1 F200 E3		;extrude 3mm of feed stock,G92 E0		;zero the extruded length again
;   layerChangeGcode,
;   retractionGcode,
;   toolChangeGcode,
;   endingGcode,M104 S0		;extruder heater off,M140 S0		;heated bed heater off (if you have it),G91		;relative positioning,G1 E-1 F300		;retract the filament a bit before lifting the nozzle, to release some of the pressure,G1 Z+0.5 E-5 X-20 Y-20 F3000	;move Z up a bit and retract filament even more,G28 X0 Y0		;move X/Y to min endstops, so the head is out of the way,M84		;steppers off,G90		;absolute positioning
;   createX3G,0
;   celebration,0
;   celebrationSong,Random Song
;   createMB5G,0
;   postProcessing,
;   defaultSpeed,3000
;   outlineUnderspeed,0.35
;   solidInfillUnderspeed,0.8
;   supportUnderspeed,0.7
;   rapidXYspeed,4800
;   rapidZspeed,800
;   minBridgingArea,50
;   bridgingExtraInflation,0
;   bridgingExtrusionMultiplier,1
;   bridgingSpeedMultiplier,1
;   filamentDiameter,2.94
;   filamentPricePerKg,46
;   filamentDensity,1.25
;   useMinPrintHeight,0
;   minPrintHeight,0
;   useMaxPrintHeight,0
;   maxPrintHeight,0
;   useDiaphragm,0
;   diaphragmLayerInterval,20
;   robustSlicing,1
;   mergeAllIntoSolid,0
;   onlyRetractWhenCrossingOutline,1
;   retractBetweenLayers,1
;   useRetractionMinTravel,0
;   retractionMinTravel,3
;   retractWhileWiping,0
;   onlyWipeOutlines,1
;   avoidCrossingOutline,0
;   maxMovementDetourFactor,3
;   toolChangeRetractionDistance,12
;   toolChangeExtraRestartDistance,-0.5
;   toolChangeRetractionSpeed,600
;   allowThinWallGapFill,1
;   thinWallAllowedOverlapPercentage,10
;   horizontalSizeCompensation,0
G90
M82
M106 S0
M140 S60
M190 S60
M104 S205 T0
M109 S205 T0
G21		;metric values
G90		;absolute positioning
M82		;set extruder to absolute mode
M107		;start with the fan off
G28 X0 Y0		;move X/Y to min endstops
G28 Z0		;move Z to min endstops
G1 Z15.0 F3000		;move the platform down 15mm
G92 E0		;zero the extruded length
G1 F200 E3		;extrude 3mm of feed stock
G92 E0		;zero the extruded length again
G92 E0
G1 E-1.5000 F600
G1 Z0.190 F800
; layer 1, Z = 0.09
T0
; tool H0.100 W0.400
; skirt
G1 X136.229 Y128.412 F4800
G1 Z0.090 F800
G1 E0.0000 F180
G92 E0
G1 X139.912 Y124.729 E0.0310 F1500
G1 X140.133 Y124.638 E0.0324
G1 X157.867 Y124.638 E0.1380
G1 X158.088 Y124.729 E0.1394
G1 X161.771 Y128.412 E0.1704
G1 X161.862 Y128.633 E0.1718
G1 X161.862 Y146.367 E0.2773
G1 X161.771 Y146.588 E0.2788
G1 X158.088 Y150.271 E0.3098
G1 X157.867 Y150.362 E0.3112
G1 X140.133 Y150.362 E0.4167
G1 X139.912 Y150.271 E0.4181
G1 X136.229 Y146.588 E0.4491
G1 X136.137 Y146.367 E0.4506
G1 X136.137 Y128.633 E0.5561
G1 X136.229 Y128.412 E0.5575
G1 X136.568 Y128.639 F4800
G92 E0
G1 X140.139 Y125.068 E0.0301 F1500
G1 X140.212 Y125.037 E0.0305
G1 X157.788 Y125.037 E0.1351
G1 X157.861 Y125.068 E0.1356
G1 X161.432 Y128.639 E0.1656
G1 X161.462 Y128.712 E0.1661
G1 X161.462 Y146.288 E0.2707
G1 X161.432 Y146.361 E0.2712
G1 X157.861 Y149.932 E0.3012
G1 X157.788 Y149.962 E0.3017
G1 X140.212 Y149.962 E0.4063
G1 X140.139 Y149.932 E0.4068
G1 X136.568 Y146.361 E0.4368
G1 X136.537 Y146.288 E0.4373
G1 X136.537 Y128.712 E0.5419
G1 X136.568 Y128.639 E0.5424
G92 E0
G1 E-1.5000 F600
G1 Z0.190 F800
; inner perimeter
G1 X143.738 Y132.238 F4800
G1 Z0.090 F800
G1 E0.0000 F600
G92 E0
G1 X146.589 Y132.238 E0.0170 F1175
G1 X145.911 Y132.634 E0.0216
G1 X145.450 Y132.960 E0.0250
G1 X145.347 Y133.043 E0.0258
G1 X145.051 Y133.302 E0.0281
G1 X144.645 Y133.724 E0.0316
G1 X144.279 Y134.193 E0.0352
G1 X143.738 Y135.058 E0.0412
G1 X143.738 Y132.238 E0.0580
G1 X143.738 Y139.919 F4800
G92 E0
G1 X144.223 Y140.725 E0.0056 F1175
G1 X144.576 Y141.194 E0.0091
G1 X144.852 Y141.502 E0.0116
G1 X145.282 Y141.904 E0.0151
G1 X145.755 Y142.264 E0.0186
G1 X146.575 Y142.762 E0.0243
G1 X143.738 Y142.762 E0.0412
G1 X143.738 Y139.919 E0.0581
G92 E0
G1 E-1.5000 F600
G1 Z0.190 F800
G1 X151.395 Y142.762 F4800
G1 Z0.090 F800
G1 E0.0000 F600
G92 E0
G1 X152.123 Y142.344 E0.0050 F1175
G1 X152.606 Y141.996 E0.0085
G1 X153.049 Y141.602 E0.0121
G1 X153.451 Y141.163 E0.0156
G1 X153.804 Y140.684 E0.0192
G1 X154.262 Y139.909 E0.0245
G1 X154.262 Y142.762 E0.0415
G1 X151.395 Y142.762 E0.0586
G92 E0
G1 E-1.5000 F600
G1 Z0.190 F800
G1 X154.262 Y135.091 F4800
G1 Z0.090 F800
G1 E0.0000 F600
G92 E0
G1 X153.804 Y134.316 E0.0054 F1175
G1 X153.451 Y133.837 E0.0089
G1 X153.054 Y133.403 E0.0124
G1 X152.749 Y133.123 E0.0149
G1 X152.285 Y132.764 E0.0184
G1 X151.436 Y132.238 E0.0243
G1 X154.262 Y132.238 E0.0411
G1 X154.262 Y135.091 E0.0581
G92 E0
G1 E-1.5000 F600
G1 Z0.190 F800
; inner perimeter
G1 X143.337 Y131.837 F4800
G1 Z0.090 F800
G1 E0.0000 F600
G92 E0
G1 X148.679 Y131.838 E0.0318 F850
G1 X148.699 Y132.136 E0.0336
G1 X148.012 Y132.229 E0.0377
G1 X147.473 Y132.359 E0.0410
G1 X146.951 Y132.543 E0.0443
G1 X146.456 Y132.779 E0.0475
G1 X146.128 Y132.971 E0.0498
G1 X145.691 Y133.280 E0.0530
G1 X145.604 Y133.350 E0.0537
G1 X145.327 Y133.592 E0.0558
G1 X144.948 Y133.986 E0.0591
G1 X144.607 Y134.423 E0.0624
G1 X144.313 Y134.892 E0.0657
G1 X144.070 Y135.389 E0.0690
G1 X143.878 Y135.909 E0.0723
G1 X143.741 Y136.445 E0.0756
G1 X143.661 Y136.988 E0.0788
G1 X143.648 Y137.213 E0.0802
G1 X143.338 Y137.204 E0.0820
G1 X143.338 Y131.838 E0.1140
G1 X149.222 Y132.146 F4800
G92 E0
G1 X149.234 Y131.838 E0.0018 F850
G1 X154.662 Y131.838 E0.0341
G1 X154.662 Y137.249 E0.0664
G1 X154.351 Y137.257 E0.0682
G1 X154.335 Y136.947 E0.0701
G1 X154.249 Y136.400 E0.0734
G1 X154.108 Y135.865 E0.0766
G1 X153.914 Y135.351 E0.0799
G1 X153.750 Y135.009 E0.0822
G1 X153.471 Y134.537 E0.0854
G1 X153.141 Y134.092 E0.0887
G1 X152.770 Y133.686 E0.0920
G1 X152.491 Y133.429 E0.0943
G1 X152.057 Y133.093 E0.0975
G1 X151.586 Y132.802 E0.1008
G1 X151.093 Y132.562 E0.1041
G1 X150.738 Y132.427 E0.1063
G1 X150.211 Y132.275 E0.1096
G1 X149.666 Y132.178 E0.1129
G1 X149.222 Y132.146 E0.1156
G92 E0
G1 E-1.5000 F600
G1 Z0.190 F800
G1 X154.351 Y137.743 F4800
G1 Z0.090 F800
G1 E0.0000 F600
G92 E0
G1 X154.662 Y137.751 E0.0019 F850
G1 X154.662 Y143.162 E0.0341
G1 X149.301 Y143.162 E0.0660
G1 X149.295 Y142.849 E0.0678
G1 X149.486 Y142.841 E0.0690
G1 X150.034 Y142.763 E0.0723
G1 X150.566 Y142.629 E0.0755
G1 X150.925 Y142.506 E0.0778
G1 X151.426 Y142.283 E0.0811
G1 X151.906 Y142.008 E0.0843
G1 X152.355 Y141.684 E0.0876
G1 X152.768 Y141.317 E0.0909
G1 X153.141 Y140.908 E0.0942
G1 X153.471 Y140.463 E0.0975
G1 X153.750 Y139.991 E0.1008
G1 X153.914 Y139.648 E0.1030
G1 X154.108 Y139.135 E0.1063
G1 X154.249 Y138.600 E0.1096
G1 X154.335 Y138.053 E0.1129
G1 X154.351 Y137.743 E0.1147
G92 E0
G1 E-1.5000 F600
G1 Z0.190 F800
G1 X148.775 Y142.853 F4800
G1 Z0.090 F800
G1 E0.0000 F600
G92 E0
G1 X148.765 Y143.162 E0.0018 F850
G1 X143.338 Y143.162 E0.0341
G1 X143.338 Y137.812 E0.0660
G1 X143.637 Y137.792 E0.0678
G1 X143.724 Y138.464 E0.0718
G1 X143.852 Y139.003 E0.0751
G1 X144.034 Y139.526 E0.0784
G1 X144.269 Y140.027 E0.0817
G1 X144.555 Y140.501 E0.0850
G1 X144.885 Y140.939 E0.0883
G1 X145.139 Y141.222 E0.0905
G1 X145.540 Y141.598 E0.0938
G1 X145.981 Y141.933 E0.0971
G1 X146.450 Y142.218 E0.1003
G1 X146.790 Y142.386 E0.1026
G1 X147.300 Y142.587 E0.1059
G1 X147.834 Y142.735 E0.1092
G1 X148.380 Y142.827 E0.1125
G1 X148.775 Y142.853 E0.1148
G92 E0
G1 E-1.5000 F600
G1 Z0.190 F800
; outer perimeter
G1 X142.938 Y131.438 F4800
G1 Z0.090 F800
G1 E0.0000 F600
G92 E0
G1 X155.062 Y131.438 E0.0722 F525
G1 X155.062 Y143.562 E0.1443
G1 X142.938 Y143.562 E0.2165
G1 X142.938 Y131.438 E0.2886
; inner perimeter
; inner perimeter
; outer perimeter
G1 X144.935 Y134.652 F4800
G92 E0
G1 X144.663 Y135.087 E0.0030 F525
G1 X144.438 Y135.547 E0.0061
G1 X144.261 Y136.027 E0.0091
G1 X144.134 Y136.524 E0.0122
G1 X144.060 Y137.029 E0.0152
G1 X144.039 Y137.374 E0.0173
G1 X144.052 Y137.884 E0.0203
G1 X144.118 Y138.392 E0.0234
G1 X144.236 Y138.891 E0.0264
G1 X144.405 Y139.374 E0.0295
G1 X144.623 Y139.838 E0.0325
G1 X144.887 Y140.277 E0.0356
G1 X145.194 Y140.685 E0.0386
G1 X145.425 Y140.942 E0.0407
G1 X145.798 Y141.292 E0.0437
G1 X146.206 Y141.602 E0.0468
G1 X146.643 Y141.867 E0.0498
G1 X146.952 Y142.020 E0.0519
G1 X147.427 Y142.207 E0.0549
G1 X147.921 Y142.344 E0.0579
G1 X148.426 Y142.429 E0.0610
G1 X148.937 Y142.462 E0.0640
G1 X149.449 Y142.442 E0.0671
G1 X149.957 Y142.370 E0.0701
G1 X150.452 Y142.246 E0.0732
G1 X150.778 Y142.133 E0.0752
G1 X151.245 Y141.926 E0.0783
G1 X151.689 Y141.671 E0.0813
G1 X152.105 Y141.371 E0.0844
G1 X152.486 Y141.032 E0.0874
G1 X152.832 Y140.653 E0.0905
G1 X153.137 Y140.242 E0.0935
G1 X153.396 Y139.802 E0.0965
G1 X153.546 Y139.491 E0.0986
G1 X153.726 Y139.013 E0.1016
G1 X153.857 Y138.518 E0.1047
G1 X153.936 Y138.012 E0.1077
G1 X153.963 Y137.500 E0.1108
G1 X153.936 Y136.988 E0.1138
G1 X153.857 Y136.482 E0.1169
G1 X153.726 Y135.987 E0.1199
G1 X153.546 Y135.509 E0.1230
G1 X153.396 Y135.198 E0.1250
G1 X153.137 Y134.758 E0.1281
G1 X152.832 Y134.346 E0.1311
G1 X152.487 Y133.968 E0.1342
G1 X152.233 Y133.735 E0.1362
G1 X151.829 Y133.422 E0.1393
G1 X151.393 Y133.152 E0.1423
G1 X150.934 Y132.930 E0.1453
G1 X150.612 Y132.806 E0.1474
G1 X150.121 Y132.665 E0.1504
G1 X149.616 Y132.576 E0.1535
G1 X149.105 Y132.538 E0.1565
G1 X148.593 Y132.554 E0.1596
G1 X148.085 Y132.622 E0.1626
G1 X147.587 Y132.743 E0.1657
G1 X147.104 Y132.914 E0.1687
G1 X146.643 Y133.133 E0.1718
G1 X146.345 Y133.307 E0.1738
G1 X145.932 Y133.599 E0.1768
G1 X145.861 Y133.656 E0.1774
G1 X145.604 Y133.882 E0.1794
G1 X145.251 Y134.249 E0.1824
G1 X144.935 Y134.653 E0.1855
; gap fill
G1 X143.339 Y137.504 F4800
G92 E0
G1 X143.332 Y137.511 E0.0001 F1500
; solid layer
G1 X144.038 Y141.331 F4800
G92 E0
G1 X144.189 Y141.179 E0.0013 F1200
G1 X144.344 Y141.385 E0.0028
G1 X144.441 Y141.493 E0.0037
G1 X144.037 Y141.897 E0.0071
G1 X144.037 Y142.462 E0.0104
G1 X144.038 Y142.462 E0.0104
G1 X144.715 Y141.785 E0.0161
G1 X145.007 Y142.058 E0.0185
G1 X144.603 Y142.462 E0.0219
G1 X145.169 Y142.462 E0.0253
G1 X145.321 Y142.311 E0.0266
G1 X152.523 Y142.462 F4800
G92 E0
G1 X152.653 Y142.332 E0.0011 F1200
G1 X152.794 Y142.231 E0.0021
G1 X153.260 Y141.816 E0.0058
G1 X153.683 Y141.353 E0.0096
G1 X153.826 Y141.159 E0.0110
G1 X153.962 Y141.023 E0.0122
G1 X153.962 Y141.589 E0.0155
G1 X153.089 Y142.462 E0.0229
G1 X153.654 Y142.462 E0.0262
G1 X153.962 Y142.154 E0.0288
G1 X153.962 Y133.669 F4800
G92 E0
G1 X153.811 Y133.820 E0.0013 F1200
G1 X153.682 Y133.646 E0.0026
G1 X153.557 Y133.509 E0.0037
G1 X153.962 Y133.103 E0.0071
G1 X153.962 Y132.538 E0.0105
G1 X153.287 Y133.213 E0.0161
G1 X153.267 Y133.191 E0.0163
G1 X152.994 Y132.940 E0.0185
G1 X153.397 Y132.537 E0.0219
G1 X152.831 Y132.537 E0.0253
G1 X152.679 Y132.689 E0.0266
G1 X145.477 Y132.538 F4800
G92 E0
G1 X145.353 Y132.661 E0.0010 F1200
G1 X145.270 Y132.720 E0.0017
G1 X145.155 Y132.813 E0.0025
G1 X144.844 Y133.085 E0.0050
G1 X144.418 Y133.527 E0.0086
G1 X144.172 Y133.843 E0.0110
G1 X144.037 Y133.977 E0.0122
G1 X144.037 Y133.412 E0.0155
G1 X144.912 Y132.537 E0.0229
G1 X144.346 Y132.537 E0.0262
G1 X144.037 Y132.846 E0.0288
G92 E0
G1 E-1.5000 F600
G1 Z0.190 F800
; support
G1 X146.840 Y135.500 F4800
G1 Z0.090 F800
G1 E0.0000 F600
G92 E0
G1 X151.160 Y135.500 E0.0257 F1050
G1 X151.160 Y135.540 E0.0259
G1 X151.609 Y135.540 E0.0286
G1 X151.609 Y136.500 E0.0343
G1 X146.287 Y136.500 E0.0660
G1 X146.287 Y137.500 E0.0720
G1 X151.609 Y137.500 E0.1036
G1 X151.609 Y138.500 E0.1096
G1 X146.287 Y138.500 E0.1413
G1 X146.287 Y139.399 E0.1466
G1 X146.840 Y139.399 E0.1499
G1 X146.840 Y139.500 E0.1505
G1 X151.160 Y139.500 E0.1762
G92 E0
G1 E-1.5000 F600
G1 Z0.290 F800
; layer 2, Z = 0.19
M106 S255
; skirt
G1 X161.862 Y146.367 F4800
G1 Z0.190 F800
G1 E0.0000 F600
G92 E0
G1 X161.771 Y146.588 E0.0014 F1917
G1 X158.088 Y150.271 E0.0324
G1 X157.867 Y150.362 E0.0338
G1 X140.133 Y150.362 E0.1394
G1 X139.912 Y150.271 E0.1408
G1 X136.229 Y146.588 E0.1718
G1 X136.137 Y146.367 E0.1732
G1 X136.137 Y128.633 E0.2788
G1 X136.229 Y128.412 E0.2802
G1 X139.912 Y124.729 E0.3112
G1 X140.133 Y124.638 E0.3126
G1 X157.867 Y124.638 E0.4181
G1 X158.088 Y124.729 E0.4196
G1 X161.771 Y128.412 E0.4506
